X: 43542
T: You Young And Carefree Lads
R: jig
M: 6/8
K: Dmajor
|:dAA BGG|ABA f2e|dAA BGG|Adc d3:|
fef gfg|agf g2e|fed eAA|ABA f2e|
dAA A2d|BGG G2 E|FGA BAG|Adc d3|

